X: 8
T:Dan O'Keeffe's Slide No. 2 [in A]
T:Danny Ab's Slide
M:12/8
L:1/8
R:Slide
K:ADor
A2e e2d BAB d2B|A2e e2d B2G GFG|!
A2e e2d BAB d3|BAB d2e B2A A2G||!
A2e e2d BAB d2B|A2e e2d B2G "var."GAB|!
A2e e2d BAB d3|BAB d2e B2A A3|]!
e2a a2b a2g e2d|e2a a2b a2g e2f|!
g2a g2e dBA G2A|BAB d2e B2A A3||!
e2a a2b a2g e2d|e2a a2b a2g e2f|!
g2a g2e dBA G2A|BAB d2e B2A A2G|]!
